svg/fluentui-system-icons/ic_fluent_location_arrow_left_48_regular.svg

<svg width="48" height="48" viewBox="0 0 48 48" fill="none" xmlns="http://www.w3.org/2000/svg">
<path d="M22.8839 16.8839C23.372 16.3957 23.372 15.6043 22.8839 15.1161C22.3957 14.628 21.6043 14.628 21.1161 15.1161L16.1161 20.1161C15.628 20.6043 15.628 21.3957 16.1161 21.8839L21.1161 26.8839C21.6043 27.372 22.3957 27.372 22.8839 26.8839C23.372 26.3957 23.372 25.6043 22.8839 25.1161L20.0178 22.25H31C31.6904 22.25 32.25 21.6904 32.25 21C32.25 20.3096 31.6904 19.75 31 19.75H20.0178L22.8839 16.8839ZM26.9115 42.7093L37 32H36.9619L36.9788 31.9801L37 31.955C37.6442 31.1913 38.2224 30.37 38.7257 29.5C40.1721 26.9995 41 24.0964 41 21C41 11.6112 33.3888 4 24 4C14.6112 4 7 11.6112 7 21C7 24.0964 7.82785 26.9995 9.2743 29.5C9.77758 30.37 10.3558 31.1913 11 31.955L11.0212 31.9801L11.0381 32H11L21.0884 42.7093C22.6675 44.3856 25.3324 44.3856 26.9115 42.7093ZM38.5 21C38.5 24.5801 37.2057 27.8515 35.0566 30.3815L34.7488 30.7438L25.0918 40.995C24.4996 41.6236 23.5003 41.6236 22.9081 40.995L13.2512 30.7438L12.9434 30.3815C10.7943 27.8515 9.5 24.5801 9.5 21C9.5 12.9919 15.9919 6.5 24 6.5C32.0081 6.5 38.5 12.9919 38.5 21Z" fill="#212121"/>
</svg>

<svg xmlns="http://www.w3.org/2000/svg" width="48" height="48"><path d="M22.884 16.884a1.25 1.25 0 0 0-1.768-1.768l-5 5a1.25 1.25 0 0 0 0 1.768l5 5a1.25 1.25 0 0 0 1.768-1.768l-2.866-2.866H31a1.25 1.25 0 1 0 0-2.5H20.018l2.866-2.866Zm4.027 25.825L37 32h-.038l.017-.02.021-.025A16.922 16.922 0 0 0 41 21c0-9.389-7.611-17-17-17S7 11.611 7 21a16.922 16.922 0 0 0 4 10.955l.021.025.017.02H11l10.088 10.71a4 4 0 0 0 5.823 0ZM38.5 21a14.43 14.43 0 0 1-3.443 9.381l-.308.363-9.657 10.251a1.5 1.5 0 0 1-2.184 0l-9.657-10.251-.308-.363A14.433 14.433 0 0 1 9.5 21c0-8.008 6.492-14.5 14.5-14.5S38.5 12.992 38.5 21Z"/></svg>
